static/assets/images/protocols/stargate-finance-mono.svg

<svg width="367" height="367" viewBox="0 0 367 367" fill="none" xmlns="http://www.w3.org/2000/svg">
<path d="M219.641 14.8022L229.395 37.793C248.59 82.5147 284.148 118.418 329.146 137.629L352.117 147.393C358.096 149.912 362.816 153.691 366.592 158.101C355.264 76.5308 290.756 11.9678 209.256 0.629875C213.347 4.09423 217.123 8.81835 219.641 14.8022ZM14.7896 147.078L37.7606 137.315C82.4439 118.103 118.316 82.5147 137.511 37.478L147.266 14.4873C149.469 8.81833 153.245 3.7793 157.965 0C76.4651 11.3379 11.9575 75.9009 0.629364 157.471C4.09075 153.377 8.81081 149.597 14.7896 147.078ZM351.802 219.829L328.831 229.592C284.148 248.804 248.276 284.392 229.081 329.429L219.326 352.105C217.123 357.774 213.347 362.813 208.627 366.592C290.127 355.254 354.634 290.691 365.963 209.121C362.501 213.845 357.467 217.625 351.802 219.829ZM146.951 352.105L137.197 329.429C118.002 284.707 82.4439 248.804 37.4459 229.592L14.4749 219.829C8.81079 217.625 3.77605 213.845 0 209.121C11.3282 290.691 75.8358 355.254 157.336 366.592C152.93 362.813 149.469 357.774 146.951 352.105Z" fill="black"/>
<path d="M100.38 165.659L111.708 160.935C133.735 151.487 151.357 133.85 160.797 111.804L165.517 100.466C172.125 84.7193 194.467 84.7193 201.39 100.466L206.11 111.804C215.55 133.85 233.171 151.487 255.198 160.935L266.527 165.659C282.26 172.273 282.26 194.634 266.527 201.563L255.198 206.287C233.171 215.735 215.55 233.372 206.11 255.418L201.39 266.756C194.781 282.503 172.44 282.503 165.517 266.756L160.797 255.418C151.357 233.372 133.735 215.735 111.708 206.287L100.38 201.563C84.6466 194.634 84.6466 172.273 100.38 165.659Z" fill="black"/>
</svg>

<svg xmlns="http://www.w3.org/2000/svg" fill="none" viewBox="0 0 367 367"><path fill="#000" d="m219.641 14.802 9.754 22.991c19.195 44.722 54.753 80.625 99.751 99.836l22.971 9.764c5.979 2.519 10.699 6.298 14.475 10.708C355.264 76.531 290.756 11.968 209.256.63a37.75 37.75 0 0 1 10.385 14.172M14.79 147.078l22.97-9.763c44.684-19.212 80.556-54.8 99.751-99.837l9.755-22.99c2.203-5.67 5.979-10.709 10.699-14.488C76.465 11.338 11.958 75.9.629 157.471a37.7 37.7 0 0 1 14.16-10.393m337.012 72.751-22.971 9.763c-44.683 19.212-80.555 54.8-99.75 99.837l-9.755 22.676c-2.203 5.669-5.979 10.708-10.699 14.487 81.5-11.338 146.007-75.901 157.336-157.471-3.462 4.724-8.496 8.504-14.161 10.708M146.951 352.105l-9.754-22.676c-19.195-44.722-54.753-80.625-99.751-99.837l-22.971-9.763C8.81 217.625 3.776 213.845 0 209.121c11.328 81.57 75.836 146.133 157.336 157.471-4.406-3.779-7.867-8.818-10.385-14.487M100.38 165.659l11.328-4.724c22.027-9.448 39.649-27.085 49.089-49.131l4.72-11.338c6.608-15.747 28.95-15.747 35.873 0l4.72 11.338c9.44 22.046 27.061 39.683 49.088 49.131l11.329 4.724c15.733 6.614 15.733 28.975 0 35.904l-11.329 4.724c-22.027 9.448-39.648 27.085-49.088 49.131l-4.72 11.338c-6.609 15.747-28.95 15.747-35.873 0l-4.72-11.338c-9.44-22.046-27.062-39.683-49.089-49.131l-11.328-4.724c-15.733-6.929-15.733-29.29 0-35.904"/></svg>
